client/public/img/misc/emotes_icon.svg

<?xml version="1.0" encoding="UTF-8" standalone="no"?>
<!-- Created with Inkscape (http://www.inkscape.org/) -->

<svg
   width="20"
   height="20"
   viewBox="0 0 5.2916667 5.2916667"
   version="1.1"
   id="svg1"
   xml:space="preserve"
   xmlns="http://www.w3.org/2000/svg"
   xmlns:svg="http://www.w3.org/2000/svg"><defs
     id="defs1" /><path
     id="path10-38"
     style="fill:#fffffe;fill-opacity:1;fill-rule:nonzero;stroke:none;stroke-width:0.547414;stroke-linecap:round;stroke-linejoin:round;stroke-miterlimit:4;stroke-dasharray:none;stroke-dashoffset:0;stroke-opacity:1;paint-order:markers stroke fill"
     d="M 2.6458333,0 A 2.6458337,2.6458337 0 0 0 0,2.6458333 2.6458337,2.6458337 0 0 0 2.6458333,5.2916666 2.6458337,2.6458337 0 0 0 5.2916666,2.6458333 2.6458337,2.6458337 0 0 0 2.6458333,0 Z M 1.4483657,1.6281215 A 0.40185543,0.40185543 0 0 1 1.8502369,2.0299928 0.40185543,0.40185543 0 0 1 1.4483657,2.431864 0.40185543,0.40185543 0 0 1 1.0464944,2.0299928 0.40185543,0.40185543 0 0 1 1.4483657,1.6281215 Z m 2.4076974,0 A 0.40185542,0.40185542 0 0 1 4.2579343,2.0299928 0.40185542,0.40185542 0 0 1 3.8560631,2.431864 0.40185542,0.40185542 0 0 1 3.4541918,2.0299928 0.40185542,0.40185542 0 0 1 3.8560631,1.6281215 Z m 0.4151764,1.503623 a 0.17413728,0.17413728 0 0 1 0.1250417,0.046432 0.17413728,0.17413728 0 0 1 0.00937,0.2457388 C 3.4692982,4.4351278 2.5495487,4.4610572 1.9091599,4.1961602 1.2687709,3.9312633 0.8854743,3.4100675 0.8854743,3.4100675 a 0.17413728,0.17413728 0 0 1 0.035435,-0.2437024 0.17413728,0.17413728 0 0 1 0.2437023,0.035435 c 0,0 0.3424275,0.4511843 0.8780073,0.672727 0.5355797,0.2215425 1.2420205,0.2474265 2.1073801,-0.6871183 a 0.17413728,0.17413728 0 0 1 0.1212405,-0.055664 z" /><style
     type="text/css"
     id="style16758">
	.st0{fill:#FFC300;stroke:#695000;stroke-width:13;stroke-miterlimit:10;}
	.st1{fill:#FFC300;stroke:#695000;stroke-width:13;stroke-linecap:round;stroke-miterlimit:10;}
</style><style
     type="text/css"
     id="style16758-4">
	.st0{fill:#FFC300;stroke:#695000;stroke-width:13;stroke-miterlimit:10;}
	.st1{fill:#FFC300;stroke:#695000;stroke-width:13;stroke-linecap:round;stroke-miterlimit:10;}
</style><style
     type="text/css"
     id="style16758-5">
	.st0{fill:#FFC300;stroke:#695000;stroke-width:13;stroke-miterlimit:10;}
	.st1{fill:#FFC300;stroke:#695000;stroke-width:13;stroke-linecap:round;stroke-miterlimit:10;}
</style><style
     type="text/css"
     id="style16758-9">
	.st0{fill:#FFC300;stroke:#695000;stroke-width:13;stroke-miterlimit:10;}
	.st1{fill:#FFC300;stroke:#695000;stroke-width:13;stroke-linecap:round;stroke-miterlimit:10;}
</style></svg>

<svg xmlns="http://www.w3.org/2000/svg" xml:space="preserve" width="20" height="20" viewBox="0 0 5.292 5.292"><path d="M2.646 0A2.646 2.646 0 0 0 0 2.646a2.646 2.646 0 0 0 2.646 2.646 2.646 2.646 0 0 0 2.646-2.646A2.646 2.646 0 0 0 2.646 0M1.448 1.628a.4.4 0 0 1 .402.402.4.4 0 0 1-.402.402.4.4 0 0 1-.402-.402.4.4 0 0 1 .402-.402m2.408 0a.4.4 0 0 1 .402.402.4.4 0 0 1-.402.402.4.4 0 0 1-.402-.402.4.4 0 0 1 .402-.402m.415 1.504a.17.17 0 0 1 .125.046.174.174 0 0 1 .01.246c-.937 1.011-1.856 1.037-2.497.772S.885 3.41.885 3.41a.174.174 0 0 1 .036-.244.174.174 0 0 1 .244.036s.342.451.878.673c.535.221 1.242.247 2.107-.688a.17.17 0 0 1 .121-.055" style="fill:#fffffe;fill-opacity:1;fill-rule:nonzero;stroke:none;stroke-width:.547414;stroke-linecap:round;stroke-linejoin:round;stroke-miterlimit:4;stroke-dasharray:none;stroke-dashoffset:0;stroke-opacity:1;paint-order:markers stroke fill"/></svg>
